X:1
T:Minuet
T:Minuet
T:James Hook
C:James Hook
%%score { 1 | 2 }
L:1/8
M:3/4
K:C
V:1 treble nm="Piano" snm="Pno."
V:2 bass 
V:1
 e2 f2 g2 | c2 d2 e2 | de fd ec | dc de fd | e2 f2 g2 | c2 d2 e2 | de fe de | c6 :: ed cd ec | g6 | %10
 ed cd ec | g6 | ed ef de | fe fg ef | de fe de | c6 :| %16
V:2
 C4 B,2 | A,2 B,2 C2 | B,2 G,2 C2 | G,6 | C4 B,2 | A,2 B,2 C2 | F,4 G,2 | C6 :: C6 | %9
 B,A, G,A, B,G, | C6 | B,A, G,A, B,G, | C4 B,2 | A,2 B,2 C2 | F,4 G,2 | C6 :| %16

